X:0485
T:Love Sick Polly.
M:C|
L:1/8
Q:1/4=96 "Moderato"
I: :| ::
Z:Jack Campin * www.campin.me.uk * 2009
K:E Minor
e2EF GFGE |gfge edcB |e2EF GFGE|cBcA  B4 |
e2EF GFGE |gfge edcB |b2ag a2gf|g2f2  e4::
g2fe e^dcB|g2fe e^dcB|e2B2 c2BA|G2FE TB4 |
e2EF GFGE |gfge edcB |e2B2 c2BA|G2F2  E4:|
<end>
<start>
